X:61
T:Mist Covered Mountain, The
S:The Session: https://thesession.org/tunes/256#setting55366
C:Traditional
R:jig
K:Ador
M:6/8
L:1/8
Q:1/4=113
G |: "Am"EAA ABd| e2 A AGE| "G"~G3 GAB| "Em"dBA GED| 
| "Am"EAA ABd| e2A AGE| "G"efg dBG|1 "Em"BAG "Am"A2 G :|2 "Em"BAG "Am"A2 a |]
| "Am"age a2b| age edB| "G"AGE G2A| "Em"BAB GED| 
| "Am"age a2b| age edB| "G"AGE G2A| "Em"BAG A3| 
| "Am"age a2b| age edB| "G"AGE G2A| "Em"BAB GED| 
| "Am"EDE G2A| "Em"BAG ABd| "G"efg dBG| BAG "Am"A3||

